X: 4
P: Tamo daleko
%T:Тамо далеко
O: Serbia %(Србија)
R: waltz
Z: 2008 John Chambers <jc:trillian.mit.edu>
N: There is a lot of variation in the lyrics.
M: 3/4
L: 1/4
K: Am
|: "Am"EAc | edc | e3- | "E7"e3 | "Am"EAc | edc | "E7"B3- | B3 || "Dm"ddd | dcB |
| "Dm"d3- | f3 | "Am"efe | "E7"dcB | "Am"A3- | A3 :: "Am"A3 | E2A | "E7"(c2B) | "Am"A2"G7"G | "C"e2e |
| "G7"(de)f | "C"e3- | "E7"e3 || "Am"ABc | (ed)c | "Dm"(d2c) | "E7"B3 | "E7"efe | dcB | "Am"A3- | A3 :|

%%newpage

#abcjoin: UCT=1.
#abcjoin: sep=2.


